svgs/solid/police-box.svg

<svg xmlns="http://www.w3.org/2000/svg" viewBox="0 0 384 512"><!--! Font Awesome Pro 6.4.2 by @fontawesome - https://fontawesome.com License - https://fontawesome.com/license (Commercial License) Copyright 2023 Fonticons, Inc. --><path d="M192 0c8.8 0 16 7.2 16 16V32h80c17.7 0 32 14.3 32 32c17.7 0 32 14.3 32 32V464h8c13.3 0 24 10.7 24 24s-10.7 24-24 24H24c-13.3 0-24-10.7-24-24s10.7-24 24-24h8V96c0-17.7 14.3-32 32-32c0-17.7 14.3-32 32-32h80V16c0-8.8 7.2-16 16-16zM96 136v24h32V128H104c-4.4 0-8 3.6-8 8zm0 40v24c0 4.4 3.6 8 8 8h24V176H96zm72-48H144v32h32V136c0-4.4-3.6-8-8-8zm-24 48v32h24c4.4 0 8-3.6 8-8V176H144zm72-48c-4.4 0-8 3.6-8 8v24h32V128H216zm24 48H208v24c0 4.4 3.6 8 8 8h24V176zm16-48v32h32V136c0-4.4-3.6-8-8-8H256zm32 48H256v32h24c4.4 0 8-3.6 8-8V176zM96 256v48c0 8.8 7.2 16 16 16h48c8.8 0 16-7.2 16-16V256c0-8.8-7.2-16-16-16H112c-8.8 0-16 7.2-16 16z"/></svg>

<svg xmlns="http://www.w3.org/2000/svg" viewBox="0 0 384 512"><!--! Font Awesome Pro 6.1.1 by @fontawesome - https://fontawesome.com License - https://fontawesome.com/license (Commercial License) Copyright 2022 Fonticons, Inc. --><path d="M192 0C200.8 0 208 7.164 208 16V32H288C305.7 32 320 46.33 320 64C337.7 64 352 78.33 352 96V464H360C373.3 464 384 474.7 384 488C384 501.3 373.3 512 360 512H24C10.75 512 0 501.3 0 488C0 474.7 10.75 464 24 464H32V96C32 78.33 46.33 64 64 64C64 46.33 78.33 32 96 32H176V16C176 7.164 183.2 0 192 0zM96 160H128V128H104C99.58 128 96 131.6 96 136V160zM96 200C96 204.4 99.58 208 104 208H128V176H96V200zM168 128H144V160H176V136C176 131.6 172.4 128 168 128zM144 208H168C172.4 208 176 204.4 176 200V176H144V208zM216 128C211.6 128 208 131.6 208 136V160H240V128H216zM240 176H208V200C208 204.4 211.6 208 216 208H240V176zM256 160H288V136C288 131.6 284.4 128 280 128H256V160zM288 176H256V208H280C284.4 208 288 204.4 288 200V176zM96 304C96 312.8 103.2 320 112 320H160C168.8 320 176 312.8 176 304V256C176 247.2 168.8 240 160 240H112C103.2 240 96 247.2 96 256V304z"/></svg>
